X: 24277
T: Lost And Found, The
R: jig
M: 6/8
K: Gmajor
|:G/G/GB d2 d|edB dBA|G/G/GB d2 g|edB AGE|
G/G/GB d2 d|edB def|gfe dBA|Bee dBA:|
|:g/g/ga bge|f/f/fg afd|g/g/ga bge|edB GBd|
g/g/ga bge|f/f/fg afd|gbg faf|efg edB:|

